X:1
T:Quickly Coming
T:Quickly Coming
T:Arranged from John Hart Stockton, 1869
T:Martin Wells Knapp, 1902
T:Public Domain Courtesy of the Cyber Hymnal™
T:Public Domain Courtesy of the Cyber Hymnal™
C:Arranged from John Hart Stockton, 1869
Z:Public Domain
Z:Courtesy of the Cyber Hymnal™
%%score ( 1 2 ) 3
L:1/8
Q:1/4=113
M:6/8
K:Eb
V:1 treble 
V:2 treble 
V:3 bass 
V:1
 [GB] | [GB]2 [EG] E2 [DF] | [EG]2 [FA] [GB]2 [GB] | [GB]2 E [EG]2 E | [DF]3 E2 [GB] | %5
w: 1.~Soon|skies will rend and|Christ desc- end, And|ev- ery eye be-|hold Him, While|
w: 2.~We|then shall rise, and|in the skies, With|heav’n- ly bliss and|glo- ry, The|
w: 3.~And|when at last the|rap- ture past, And|mar- riage feast is|end- ed, Then|
w: 4.~Then|Christ will reign and|His do- main, From|land to sea be|giv- en, Oh,|
w: 5.~If|you would share His|king- dom fair Be|rea- dy, now He|calls you, Too|
 [GB]2 [EG] E2 [DF] | [EG]2 [FA] [GB]2 [GB] | [GB]2 E [EG]2 E | [DF]3 E2 z [GB] | %9
w: an- gels bright in|clouds of light, In|ma- jes- ty en-|fold Him; His|
w: graves shall quake, and|coff- ins break, And|saints a- rise to|meet Him; Be-|
w: wars will cease and|per- fect peace O’er|all the world pre-|vail- ing, The|
w: now a- wake! your|sins for- sake, Re-|pent, ’tis now or|ne- ver! His|
w: late, too late, if|long you wait, His|com- ing is im-|pend- ing, Oh|
 [GB]2 [EG] E2 [DF] | [EG]2 [FA] [GB]2 [GB] | [GB]2 E [EG]2 E | [DF]3 E2 [GB] | %13
w: trump- et sound will|soon re- sound, Thro’|earth and Heav- en|ring- ing, His|
w: hold His face, oh|wond- rous grace! And|sing the “old, old|story.” When by|
w: bri- dal train re-|turns a- gain, By|heav’n- ly hosts de-|fend- ed; And|
w: king- dom come, and|will be done, “On|earth as ’tis in|Heav- en. Oh|
w: to Him fly, while|He is nigh, Be-|fore His wrath be-|falls you; Like|
 [GB]2 [EG] E2 [DF] | [EG]2 [FA] [GB]2 [GB] | [GB]2 E [EG]2 E | [DF]3 E2 z || %17
w: dead will wake, His|bride He’ll take, To|mar- riage sup- per|bring- ing.|
w: and by the sods|will fly, As we|as- cend to greet|Him. *|
w: right- eous- ness the|world shall bless, With|not one prom- ise|fail- ing.|
w: trust His grace, the|cross em- brace, Or|you are lost for-|ev- er.”|
w: light- ning flash, and|thun- der crash, He|soon will be des-|cend- ing.|
"^Refrain" (Bc)[Gd] [Ge]2 [GB] | [Bd]2 [Ac] [GB]3 | (Bc)[Gd] [Ge]2 [GB] | [Bd]2 [Ac] [GB]3 | %21
w: ||||
w: ||||
w: Je- * sus, Lamb for|sin- ners slain,|Oh * how sweet the|glad re- frain,|
w: ||||
w: ||||
 [GB]2 [EG] E2 [DF] | [EG]2 [FA] [GB]3 | [GB]2 E [EG]2 E | [DF]3 E2 |] %25
w: ||||
w: ||||
w: Com- ing soon as|king to reign,|Quick- ly come, Lord|Je- sus!|
w: ||||
w: ||||
V:2
 x | x3 E2 x | x6 | x2 E x E x | x3 E2 x | x3 E2 x | x6 | x2 E x E x | x3 E2 x2 | x3 E2 x | x6 | %11
 x2 E x E x | x3 E2 x | x3 E2 x | x6 | x2 E x E x | x3 E2 x || G2 x4 | x6 | G2 x4 | x6 | x3 E2 x | %22
 x6 | x2 E x E x | x3 E2 |] %25
V:3
 [E,B,] | [E,B,]2 [E,B,] [E,G,]2 [B,,B,] | [E,B,]2 [E,B,] [E,B,]2 [E,B,] | %3
 [E,B,]2 [E,G,] [E,B,]2 [E,G,] | [B,,A,]3 [E,G,]2 [E,B,] | [E,B,]2 [E,B,] [E,G,]2 [B,,B,] | %6
 [E,B,]2 [E,B,] [E,B,]2 [E,B,] | [E,B,]2 [E,G,] [E,B,]2 [E,G,] | [B,,A,]3 [E,G,]2 z [E,B,] | %9
 [E,B,]2 [E,B,] [E,G,]2 [B,,B,] | [E,B,]2 [E,B,] [E,B,]2 [E,B,] | [E,B,]2 [E,G,] [E,B,]2 [E,G,] | %12
 [B,,A,]3 [E,G,]2 [E,B,] | [E,B,]2 [E,B,] [E,G,]2 [B,,B,] | [E,B,]2 [E,B,] [E,B,]2 [E,B,] | %15
 [E,B,]2 [E,G,] [E,B,]2 [E,G,] | [B,,A,]3 [E,G,]2 z || [E,B,]2 [E,B,] [E,B,]2 [E,E] | %18
 [A,E]2 [A,E] [E,E]3 | [E,B,]2 [E,B,] [E,B,]2 [E,E] | [A,E]2 [A,E] E3 | %21
 [E,E]2 [E,B,] [E,G,]2 [B,,B,] | [E,B,]2 [E,B,] [E,B,]3 | [E,B,]2 [E,G,] [E,B,]2 [E,G,] | %24
 [B,,A,]3 [E,G,]2 |] %25

